!!!COM: Music21
!!!OTL: slide_Hop--The
!!!OMV: slide_Hop--The
**kern
*clefG2
*k[f#c#]
*D:
*M12/8
=1
4a
8f#
8dL
8f#
8aJ
4b
8a
4dd
8ee
=
4ff#
8bb
8aaL
8ff#
8bbJ
8aaL
8ff#
8ddJ
4ee
8ff#
=
4a
8f#
8dL
8f#
8aJ
4b
8a
4dd
8ee
!!linebreak:original
=
4ff#
8bb
8aaL
8ff#
8ddJ
8eeL
8dd
8bJ
8ddL
8cc#
8bJ
=||
*M12/8
4a
8f#
8dL
8f#
8aJ
4b
8a
4dd
8ee
=
4ff#
8bb
8aaL
8ff#
8bbJ
8aaL
8ff#
8ddJ
4ee
8ff#
!!linebreak:original
=
4a
8f#
8dL
8f#
8aJ
4b
8a
4dd
8ee
=
4ff#
8bb
8aaL
8ff#
8ddJ
8eeL
8dd
8bJ
8ddL
8ee
8ff#J
=||
4aa
8aa
8aaL
8ff#
8ddJ
8eeL
8dd
8eeJ
8ff#L
8dd
8bJ
=
8eeL
8ff#
8eeJ
8eeL
8dd
8ff#J
8eeL
8dd
8ff#J
8eeL
8ff#
8ggJ
!!linebreak:original
=
4aa
8aa
8aaL
8ff#
8ddJ
8eeL
8dd
8eeJ
4ff#
8ee
=
8ddL
8b
8aJ
4f#
8e
8dL
8f#
8aJ
8ddL
8ee
8ff#J
=||
4aa
8aa
8aaL
8ff#
8ddJ
8eeL
8dd
8eeJ
8ff#L
8dd
8bJ
!!linebreak:original
=
8eeL
8ff#
8eeJ
8eeL
8dd
8ff#J
8eeL
8dd
8ff#J
8eeL
8ff#
8ggJ
=
4aa
8aa
8aaL
8ff#
8ddJ
8eeL
8dd
8eeJ
4ff#
8ee
=
8ddL
8b
8aJ
4f#
8e
8dL
8f#
8aJ
8ddL
8cc#
8bJ
=||
*-
